;FLAVOR:Marlin
;TIME:646
;Filament used: 0.414234m
;Layer height: 0.15
;MINX:77.9
;MINY:65.65
;MINZ:0.3
;MAXX:147.1
;MAXY:79.35
;MAXZ:5.55
;Generated with Cura_SteamEngine 5.3.1
M140 S60
M105
M190 S60
M104 S200
M105
M109 S200
M82 ;absolute extrusion mode
G28 ;Home
G1 Z15.0 F6000 ;Move the platform down 15mm
;Prime the extruder
G92 E0
G1 F200 E3
G92 E0
G92 E0
G92 E0
G1 F1500 E-6.5
;LAYER_COUNT:36
;LAYER:0
M107
G0 F3600 X78.958 Y67.328 Z0.3
;TYPE:SKIRT
G1 F1500 E0
G1 F1800 X79.294 Y66.951 E0.02519
G1 X79.685 Y66.63 E0.05043
G1 X80.122 Y66.376 E0.07565
G1 X80.593 Y66.193 E0.10086
G1 X81.088 Y66.087 E0.12612
G1 X81.74 Y66.051 E0.15869
G1 X142.839 Y66.05 E3.20694
G1 X143.537 Y66.06 E3.24176
G1 X144.04 Y66.107 E3.26697
G1 X144.53 Y66.233 E3.29221
G1 X144.994 Y66.435 E3.31746
G1 X145.42 Y66.707 E3.34267
G1 X145.798 Y67.042 E3.36787
G1 X146.118 Y67.433 E3.39308
G1 X146.373 Y67.87 E3.41832
G1 X146.556 Y68.341 E3.44353
G1 X146.663 Y68.835 E3.46875
G1 X146.699 Y69.281 E3.49107
G1 X146.7 Y74.554 E3.75414
G1 X146.691 Y75.281 E3.79041
G1 X146.645 Y75.784 E3.81561
G1 X146.52 Y76.274 E3.84084
G1 X146.319 Y76.738 E3.86607
G1 X146.048 Y77.165 E3.8913
G1 X145.713 Y77.544 E3.91654
G1 X145.323 Y77.865 E3.94174
G1 X144.887 Y78.121 E3.96696
G1 X144.416 Y78.304 E3.99217
G1 X143.673 Y78.436 E4.02982
G1 X142.964 Y78.476 E4.06525
G1 X138.1 Y78.688 E4.30815
G1 X136.971 Y78.725 E4.3645
G1 X130.006 Y78.878 E4.71207
G1 X119.295 Y78.95 E5.24646
G1 X112.494 Y78.95 E5.58576
G1 X99.763 Y78.928 E6.22091
G1 X92.295 Y78.833 E6.59352
G1 X91.516 Y78.817 E6.6324
G1 X85.899 Y78.655 E6.91275
G1 X84.983 Y78.619 E6.95848
G1 X82.067 Y78.48 E7.10413
G1 X81.315 Y78.434 E7.14171
G1 X80.814 Y78.363 E7.16696
G1 X80.331 Y78.215 E7.19216
G1 X79.877 Y77.992 E7.2174
G1 X79.464 Y77.7 E7.24263
G1 X79.102 Y77.347 E7.26786
G1 X78.8 Y76.942 E7.29306
G1 X78.566 Y76.494 E7.31828
G1 X78.405 Y76.015 E7.34349
G1 X78.31 Y75.291 E7.37992
G1 X78.3 Y74.663 E7.41125
G1 X78.3 Y69.876 E7.65008
G1 X78.31 Y69.211 E7.68326
G1 X78.358 Y68.708 E7.70847
G1 X78.484 Y68.218 E7.73371
G1 X78.686 Y67.754 E7.75896
G1 X78.958 Y67.328 E7.78417
G0 F3600 X78.659 Y67.062
G1 F1800 X78.995 Y66.685 E7.80937
G1 X79.484 Y66.284 E7.84092
G1 X79.977 Y66.003 E7.86923
G1 X80.448 Y65.82 E7.89444
G1 X81.004 Y65.696 E7.92286
G1 X81.74 Y65.651 E7.95965
G1 X142.845 Y65.65 E11.00819
G1 X143.543 Y65.66 E11.04301
G1 X144.14 Y65.72 E11.07295
G1 X144.69 Y65.866 E11.10134
G1 X145.154 Y66.068 E11.12659
G1 X145.635 Y66.37 E11.15492
G1 X146.108 Y66.789 E11.18645
G1 X146.428 Y67.18 E11.21165
G1 X146.746 Y67.725 E11.24313
G1 X146.947 Y68.256 E11.27146
G1 X147.062 Y68.803 E11.29935
G1 X147.098 Y69.249 E11.32167
G1 X147.1 Y74.559 E11.58659
G1 X147.091 Y75.286 E11.62286
G1 X147.033 Y75.883 E11.65278
G1 X146.908 Y76.373 E11.67801
G1 X146.657 Y76.952 E11.7095
G1 X146.348 Y77.43 E11.73789
G1 X145.967 Y77.853 E11.76629
G1 X145.526 Y78.21 E11.7946
G1 X145.09 Y78.466 E11.81983
G1 X144.526 Y78.691 E11.85012
G1 X143.743 Y78.83 E11.8898
G1 X142.981 Y78.876 E11.92788
G1 X138.113 Y79.088 E12.17098
G1 X136.98 Y79.125 E12.22753
G1 X130.009 Y79.278 E12.5754
G1 X119.298 Y79.35 E13.10979
G1 X112.493 Y79.35 E13.44929
G1 X99.758 Y79.328 E14.08464
G1 X92.287 Y79.233 E14.4574
G1 X91.504 Y79.217 E14.49647
G1 X85.883 Y79.055 E14.77702
G1 X84.964 Y79.019 E14.82291
G1 X82.043 Y78.879 E14.9688
G1 X81.259 Y78.83 E15.008
G1 X80.758 Y78.759 E15.03324
G1 X80.155 Y78.574 E15.06471
G1 X79.646 Y78.319 E15.09311
G1 X79.233 Y78.027 E15.11834
G1 X78.781 Y77.586 E15.14985
G1 X78.445 Y77.127 E15.17823
G1 X78.211 Y76.679 E15.20345
G1 X78.013 Y76.104 E15.23379
G1 X77.913 Y75.343 E15.27208
G1 X77.9 Y74.669 E15.30571
G1 X77.9 Y69.87 E15.54513
G1 X77.91 Y69.205 E15.57831
G1 X77.971 Y68.608 E15.60825
G1 X78.117 Y68.058 E15.63664
G1 X78.319 Y67.594 E15.66189
G1 X78.659 Y67.062 E15.69339
G1 F1500 E9.19339
;MESH:middle_part.STL
G0 F3600 X80.835 Y69.664
G0 X81.914 Y69.664
G0 X119.254 Y74.85
G0 X119.268 Y75.15
;TYPE:WALL-INNER
G1 F1500 E15.69339
G1 F1800 X129.615 Y75.086 E16.20961
G1 X137.447 Y74.913 E16.60045
G1 X142.9 Y74.675 E16.87276
G1 X142.9 Y69.85 E17.11348
G1 X82.101 Y69.851 E20.14675
G1 X82.101 Y74.677 E20.38752
G1 X85.607 Y74.844 E20.56264
G1 X91.987 Y75.029 E20.88107
G1 X99.507 Y75.127 E21.25628
G1 X119.268 Y75.15 E22.24216
G0 F3600 X119.27 Y75.55
;TYPE:WALL-OUTER
G1 F1800 X129.623 Y75.486 E22.75868
G1 X137.464 Y75.313 E23.14997
G1 X143.3 Y75.058 E23.4414
G1 X143.3 Y69.45 E23.72119
G1 X81.701 Y69.451 E26.79437
G1 X81.701 Y75.059 E27.07416
G1 X85.592 Y75.244 E27.2685
G1 X91.979 Y75.429 E27.58728
G1 X99.507 Y75.527 E27.96289
G1 X119.27 Y75.55 E28.94887
G0 F3600 X119.47 Y75.549
G0 X119.276 Y74.77
;TYPE:SKIN
G1 F1800 X99.522 Y74.747 E29.9344
G1 X92.013 Y74.649 E30.30906
G1 X85.659 Y74.464 E30.62619
G1 X82.482 Y74.315 E30.78487
G1 X82.482 Y70.232 E30.98857
G1 X142.52 Y70.23 E33.98388
G1 X142.52 Y74.31 E34.18743
G1 X137.409 Y74.534 E34.44267
G1 X129.621 Y74.706 E34.8313
G1 X119.276 Y74.77 E35.34743
G0 F3600 X141.707 Y70.43
G1 F1800 X142.319 Y71.043 E35.39064
G0 F3600 X142.319 Y71.608
G1 F1800 X141.141 Y70.43 E35.47376
G0 F3600 X140.575 Y70.43
G1 F1800 X142.319 Y72.174 E35.59681
G0 F3600 X142.319 Y72.74
G1 F1800 X140.009 Y70.43 E35.75979
G0 F3600 X139.444 Y70.43
G1 F1800 X142.319 Y73.305 E35.96264
G0 F3600 X142.319 Y73.871
G1 F1800 X138.878 Y70.43 E36.20542
G0 F3600 X138.312 Y70.43
G1 F1800 X142.013 Y74.131 E36.46654
G0 F3600 X141.472 Y74.155
G1 F1800 X137.747 Y70.43 E36.72936
G0 F3600 X137.181 Y70.43
G1 F1800 X140.929 Y74.179 E36.99384
G0 F3600 X140.388 Y74.203
G1 F1800 X136.615 Y70.43 E37.26004
G0 F3600 X136.05 Y70.43
G1 F1800 X139.845 Y74.226 E37.52784
G0 F3600 X139.304 Y74.25
G1 F1800 X135.484 Y70.43 E37.79736
G0 F3600 X134.918 Y70.43
G1 F1800 X138.761 Y74.273 E38.0685
G0 F3600 X138.22 Y74.297
G1 F1800 X134.353 Y70.43 E38.34134
G0 F3600 X133.787 Y70.43
G1 F1800 X137.677 Y74.321 E38.61584
G0 F3600 X137.13 Y74.339
G1 F1800 X133.221 Y70.43 E38.89164
G0 F3600 X132.656 Y70.43
G1 F1800 X136.576 Y74.351 E39.16825
G0 F3600 X136.024 Y74.364
G1 F1800 X132.09 Y70.43 E39.44582
G0 F3600 X131.524 Y70.43
G1 F1800 X135.47 Y74.376 E39.72423
G0 F3600 X134.916 Y74.388
G1 F1800 X130.959 Y70.43 E40.00345
G0 F3600 X130.393 Y70.43
G1 F1800 X134.363 Y74.4 E40.28356
G0 F3600 X133.81 Y74.413
G1 F1800 X129.827 Y70.43 E40.56458
G0 F3600 X129.261 Y70.43
G1 F1800 X133.256 Y74.425 E40.84645
G0 F3600 X132.702 Y74.437
G1 F1800 X128.696 Y70.43 E41.12913
G0 F3600 X128.13 Y70.43
G1 F1800 X132.149 Y74.449 E41.41269
G0 F3600 X131.596 Y74.461
G1 F1800 X127.564 Y70.43 E41.69713
G0 F3600 X126.999 Y70.43
G1 F1800 X131.042 Y74.473 E41.98239
G0 F3600 X130.488 Y74.485
G1 F1800 X126.433 Y70.43 E42.26849
G0 F3600 X125.867 Y70.43
G1 F1800 X129.935 Y74.498 E42.55551
G0 F3600 X129.378 Y74.507
G1 F1800 X125.302 Y70.43 E42.84313
G0 F3600 X124.736 Y70.43
G1 F1800 X128.816 Y74.51 E43.13099
G0 F3600 X128.253 Y74.513
G1 F1800 X124.17 Y70.43 E43.41907
G0 F3600 X123.605 Y70.43
G1 F1800 X127.691 Y74.517 E43.7074
G0 F3600 X127.129 Y74.52
G1 F1800 X123.039 Y70.43 E43.99597
G0 F3600 X122.473 Y70.43
G1 F1800 X126.567 Y74.524 E44.28482
G0 F3600 X126.005 Y74.527
G1 F1800 X121.908 Y70.43 E44.57389
G0 F3600 X121.342 Y70.43
G1 F1800 X125.442 Y74.531 E44.8632
G0 F3600 X124.88 Y74.534
G1 F1800 X120.776 Y70.43 E45.15276
G0 F3600 X120.21 Y70.43
G1 F1800 X124.318 Y74.538 E45.4426
G0 F3600 X123.756 Y74.541
G1 F1800 X119.645 Y70.43 E45.73265
G0 F3600 X119.079 Y70.43
G1 F1800 X123.194 Y74.545 E46.02299
G0 F3600 X122.632 Y74.548
G1 F1800 X118.513 Y70.43 E46.31357
G0 F3600 X117.948 Y70.43
G1 F1800 X122.069 Y74.552 E46.60437
G0 F3600 X121.507 Y74.555
G1 F1800 X117.382 Y70.43 E46.89541
G0 F3600 X116.816 Y70.43
G1 F1800 X120.945 Y74.559 E47.18673
G0 F3600 X120.383 Y74.562
G1 F1800 X116.251 Y70.43 E47.47827
G0 F3600 X115.685 Y70.43
G1 F1800 X119.821 Y74.566 E47.77008
G0 F3600 X119.258 Y74.569
G1 F1800 X115.119 Y70.43 E48.06211
G0 F3600 X114.554 Y70.43
G1 F1800 X118.692 Y74.569 E48.35411
G0 F3600 X118.126 Y74.568
G1 F1800 X113.988 Y70.43 E48.64606
G0 F3600 X113.422 Y70.43
G1 F1800 X117.56 Y74.567 E48.93799
G0 F3600 X116.993 Y74.567
G1 F1800 X112.857 Y70.43 E49.22984
G0 F3600 X112.292 Y70.431
G1 F1800 X116.427 Y74.566 E49.52159
G0 F3600 X115.86 Y74.565
G1 F1800 X111.726 Y70.431 E49.81326
G0 F3600 X111.16 Y70.431
G1 F1800 X115.294 Y74.565 E50.10494
G0 F3600 X114.728 Y74.564
G1 F1800 X110.595 Y70.431 E50.39654
G0 F3600 X110.029 Y70.431
G1 F1800 X114.161 Y74.563 E50.68808
G0 F3600 X113.595 Y74.562
G1 F1800 X109.463 Y70.431 E50.97958
G0 F3600 X108.897 Y70.431
G1 F1800 X113.028 Y74.562 E51.27104
G0 F3600 X112.462 Y74.561
G1 F1800 X108.332 Y70.431 E51.56244
G0 F3600 X107.766 Y70.431
G1 F1800 X111.896 Y74.561 E51.85383
G0 F3600 X111.33 Y74.56
G1 F1800 X107.2 Y70.431 E52.14519
G0 F3600 X106.635 Y70.431
G1 F1800 X110.764 Y74.56 E52.43651
G0 F3600 X110.197 Y74.559
G1 F1800 X106.069 Y70.431 E52.72776
G0 F3600 X105.503 Y70.431
G1 F1800 X109.631 Y74.558 E53.01898
G0 F3600 X109.064 Y74.558
G1 F1800 X104.938 Y70.431 E53.31013
G0 F3600 X104.372 Y70.431
G1 F1800 X108.498 Y74.557 E53.60124
G0 F3600 X107.932 Y74.556
G1 F1800 X103.806 Y70.431 E53.89232
G0 F3600 X103.241 Y70.431
G1 F1800 X107.365 Y74.555 E54.18329
G0 F3600 X106.799 Y74.555
G1 F1800 X102.675 Y70.431 E54.47426
G0 F3600 X102.109 Y70.431
G1 F1800 X106.232 Y74.554 E54.76516
G0 F3600 X105.666 Y74.553
G1 F1800 X101.544 Y70.431 E55.05599
G0 F3600 X100.978 Y70.431
G1 F1800 X105.1 Y74.553 E55.34682
G0 F3600 X104.534 Y74.553
G1 F1800 X100.412 Y70.431 E55.63765
G0 F3600 X99.847 Y70.431
G1 F1800 X103.968 Y74.552 E55.9284
G0 F3600 X103.401 Y74.551
G1 F1800 X99.281 Y70.431 E56.21909
G0 F3600 X98.715 Y70.431
G1 F1800 X102.835 Y74.55 E56.50975
G0 F3600 X102.268 Y74.55
G1 F1800 X98.149 Y70.431 E56.80036
G0 F3600 X97.584 Y70.431
G1 F1800 X101.702 Y74.549 E57.09091
G0 F3600 X101.136 Y74.548
G1 F1800 X97.018 Y70.431 E57.38142
G0 F3600 X96.452 Y70.431
G1 F1800 X100.569 Y74.548 E57.6719
G0 F3600 X100.003 Y74.547
G1 F1800 X95.887 Y70.431 E57.9623
G0 F3600 X95.321 Y70.431
G1 F1800 X99.436 Y74.546 E58.25264
G0 F3600 X98.862 Y74.538
G1 F1800 X94.755 Y70.431 E58.54241
G0 F3600 X94.19 Y70.431
G1 F1800 X98.289 Y74.531 E58.83165
G0 F3600 X97.716 Y74.523
G1 F1800 X93.624 Y70.431 E59.12037
G0 F3600 X93.058 Y70.431
G1 F1800 X97.143 Y74.515 E59.40855
G0 F3600 X96.57 Y74.508
G1 F1800 X92.493 Y70.431 E59.6962
G0 F3600 X91.927 Y70.431
G1 F1800 X95.996 Y74.5 E59.98329
G0 F3600 X95.424 Y74.493
G1 F1800 X91.361 Y70.431 E60.26992
G0 F3600 X90.796 Y70.431
G1 F1800 X94.85 Y74.485 E60.55596
G0 F3600 X94.277 Y74.478
G1 F1800 X90.23 Y70.431 E60.84149
G0 F3600 X89.664 Y70.431
G1 F1800 X93.704 Y74.471 E61.12654
G0 F3600 X93.13 Y74.463
G1 F1800 X89.098 Y70.431 E61.41102
G0 F3600 X88.533 Y70.431
G1 F1800 X92.558 Y74.456 E61.695
G0 F3600 X91.983 Y74.447
G1 F1800 X87.967 Y70.431 E61.97835
G0 F3600 X87.401 Y70.431
G1 F1800 X91.401 Y74.43 E62.26054
G0 F3600 X90.818 Y74.413
G1 F1800 X86.836 Y70.431 E62.54149
G0 F3600 X86.27 Y70.431
G1 F1800 X90.236 Y74.396 E62.82128
G0 F3600 X89.653 Y74.379
G1 F1800 X85.704 Y70.431 E63.09987
G0 F3600 X85.139 Y70.431
G1 F1800 X89.07 Y74.362 E63.37722
G0 F3600 X88.488 Y74.345
G1 F1800 X84.573 Y70.431 E63.65341
G0 F3600 X84.007 Y70.431
G1 F1800 X87.905 Y74.328 E63.9284
G0 F3600 X87.322 Y74.311
G1 F1800 X83.442 Y70.431 E64.20215
G0 F3600 X82.876 Y70.431
G1 F1800 X86.74 Y74.295 E64.47478
G0 F3600 X86.157 Y74.278
G1 F1800 X82.681 Y70.801 E64.72007
G0 F3600 X82.681 Y71.367
G1 F1800 X85.572 Y74.258 E64.92404
G0 F3600 X84.979 Y74.231
G1 F1800 X82.681 Y71.933 E65.08618
G0 F3600 X82.681 Y72.498
G1 F1800 X84.386 Y74.203 E65.20647
G0 F3600 X83.792 Y74.175
G1 F1800 X82.681 Y73.064 E65.28486
G0 F3600 X82.681 Y73.63
G1 F1800 X83.198 Y74.147 E65.32134
G0 F3600 X83.198 Y74.13
;MESH:NONMESH
G0 F600 X83.198 Y74.13 Z0.45
G0 F3600 X119.254 Y74.85
G0 X119.268 Y75.15
;TIME_ELAPSED:51.895079
;LAYER:1
M106 S255
;TYPE:WALL-INNER
;MESH:middle_part.STL
G1 F2700 X129.615 Y75.086 E65.57945
G1 X137.447 Y74.913 E65.77487
G1 X142.9 Y74.675 E65.91102
G1 X142.9 Y69.85 E66.03138
G1 X82.101 Y69.851 E67.54802
G1 X82.101 Y74.677 E67.66841
G1 X85.607 Y74.844 E67.75596
G1 X92.007 Y75.029 E67.91568
G1 X99.507 Y75.127 E68.10278
G1 X119.268 Y75.15 E68.59572
G0 F5400 X119.27 Y75.55
;TYPE:WALL-OUTER
G1 F1800 X129.623 Y75.486 E68.85398
G1 X137.464 Y75.313 E69.04963
G1 X143.3 Y75.058 E69.19534
G1 X143.3 Y69.45 E69.33524
G1 X81.701 Y69.451 E70.87183
G1 X81.701 Y75.059 E71.01172
G1 X85.592 Y75.244 E71.10889
G1 X92.002 Y75.429 E71.26886
G1 X99.507 Y75.527 E71.45609
G1 X119.27 Y75.55 E71.94908
G0 F5400 X119.47 Y75.549
G0 X119.276 Y74.77
;TYPE:SKIN
G1 F1800 X99.522 Y74.747 E72.44184
G1 X92.032 Y74.649 E72.6287
G1 X85.659 Y74.464 E72.78774
G1 X82.482 Y74.315 E72.86708
G1 X82.482 Y70.232 E72.96893
G1 X142.52 Y70.23 E74.46658
G1 X142.52 Y74.31 E74.56836
G1 X137.409 Y74.534 E74.69598
G1 X129.621 Y74.706 E74.8903
G1 X119.276 Y74.77 E75.14836
G0 F5400 X142.318 Y73.773
G1 F1800 X141.956 Y74.135 E75.16113
G0 F5400 X141.365 Y74.16
G1 F1800 X142.318 Y73.207 E75.19475
G0 F5400 X142.318 Y72.641
G1 F1800 X140.773 Y74.186 E75.24925
G0 F5400 X140.181 Y74.212
G1 F1800 X142.318 Y72.076 E75.32462
G0 F5400 X142.318 Y71.51
G1 F1800 X139.59 Y74.238 E75.42086
G0 F5400 X138.998 Y74.264
G1 F1800 X142.318 Y70.944 E75.53798
G0 F5400 X142.267 Y70.429
G1 F1800 X138.407 Y74.29 E75.67417
G0 F5400 X137.815 Y74.316
G1 F1800 X141.702 Y70.429 E75.8113
G0 F5400 X141.136 Y70.429
G1 F1800 X137.228 Y74.338 E75.94918
G0 F5400 X136.649 Y74.35
G1 F1800 X140.57 Y70.429 E76.0875
G0 F5400 X140.005 Y70.429
G1 F1800 X136.071 Y74.363 E76.22629
G0 F5400 X135.492 Y74.376
G1 F1800 X139.439 Y70.429 E76.36553
G0 F5400 X138.873 Y70.429
G1 F1800 X134.914 Y74.389 E76.50521
G0 F5400 X134.336 Y74.401
G1 F1800 X138.307 Y70.429 E76.64531
G0 F5400 X137.742 Y70.429
G1 F1800 X133.757 Y74.414 E76.7859
G0 F5400 X133.179 Y74.427
G1 F1800 X137.176 Y70.429 E76.92692
G0 F5400 X136.61 Y70.429
G1 F1800 X132.6 Y74.439 E77.06838
G0 F5400 X132.022 Y74.452
G1 F1800 X136.045 Y70.429 E77.2103
G0 F5400 X135.479 Y70.429
G1 F1800 X131.444 Y74.465 E77.35267
G0 F5400 X130.864 Y74.478
G1 F1800 X134.913 Y70.429 E77.49551
G0 F5400 X134.348 Y70.429
G1 F1800 X130.286 Y74.491 E77.6388
G0 F5400 X129.708 Y74.504
G1 F1800 X133.782 Y70.429 E77.78254
G0 F5400 X133.216 Y70.429
G1 F1800 X129.137 Y74.509 E77.92646
G0 F5400 X128.568 Y74.512
G1 F1800 X132.651 Y70.429 E78.0705
G0 F5400 X132.085 Y70.429
G1 F1800 X127.999 Y74.516 E78.21466
G0 F5400 X127.429 Y74.519
G1 F1800 X131.519 Y70.429 E78.35895
G0 F5400 X130.954 Y70.429
G1 F1800 X126.86 Y74.523 E78.50337
G0 F5400 X126.291 Y74.526
G1 F1800 X130.388 Y70.429 E78.64791
G0 F5400 X129.822 Y70.429
G1 F1800 X125.722 Y74.53 E78.79256
G0 F5400 X125.152 Y74.534
G1 F1800 X129.256 Y70.429 E78.93736
G0 F5400 X128.691 Y70.429
G1 F1800 X124.583 Y74.537 E79.08228
G0 F5400 X124.014 Y74.541
G1 F1800 X128.125 Y70.429 E79.22732
G0 F5400 X127.559 Y70.429
G1 F1800 X123.445 Y74.544 E79.37247
G0 F5400 X122.876 Y74.548
G1 F1800 X126.994 Y70.429 E79.51777
G0 F5400 X126.428 Y70.429
G1 F1800 X122.306 Y74.551 E79.66318
G0 F5400 X121.737 Y74.555
G1 F1800 X125.862 Y70.429 E79.80872
G0 F5400 X125.297 Y70.429
G1 F1800 X121.168 Y74.558 E79.95438
G0 F5400 X120.599 Y74.562
G1 F1800 X124.731 Y70.429 E80.10016
G0 F5400 X124.165 Y70.429
G1 F1800 X120.029 Y74.565 E80.24607
G0 F5400 X119.46 Y74.569
G1 F1800 X123.6 Y70.429 E80.39212
G0 F5400 X123.034 Y70.429
G1 F1800 X118.894 Y74.57 E80.53819
G0 F5400 X118.329 Y74.569
G1 F1800 X122.468 Y70.429 E80.68422
G0 F5400 X121.903 Y70.429
G1 F1800 X117.764 Y74.568 E80.83024
G0 F5400 X117.199 Y74.567
G1 F1800 X121.337 Y70.429 E80.97622
G0 F5400 X120.771 Y70.429
G1 F1800 X116.634 Y74.567 E81.12218
G0 F5400 X116.069 Y74.566
G1 F1800 X120.206 Y70.429 E81.26812
G0 F5400 X119.64 Y70.429
G1 F1800 X115.504 Y74.565 E81.41403
G0 F5400 X114.939 Y74.565
G1 F1800 X119.074 Y70.429 E81.55992
G0 F5400 X118.508 Y70.429
G1 F1800 X114.373 Y74.565 E81.70581
G0 F5400 X113.808 Y74.564
G1 F1800 X117.943 Y70.429 E81.85169
G0 F5400 X117.377 Y70.429
G1 F1800 X113.243 Y74.563 E81.99752
G0 F5400 X112.678 Y74.562
